dist/svg/file-excel-o.svg

<!-- Generated by Trend Micro Style Portal -->
<svg version="1.1" xmlns="http://www.w3.org/2000/svg" width="16" height="16" viewBox="0 0 16 16">
  <title>file-excel-o</title>
  <path fill="rgb(34,34,34)" d="M11 0h-9c-0.5 0-1 0.5-1 1v14c0 0.5 0.5 1 1 1h12c0.5 0 1-0.5 1-1v-11l-4-4zM11 1.4l2.6 2.6h-2.6v-2.6zM14 15h-12v-14h8v4h4v10zM9 6h3v1h-0.8l-2.5 3 2.5 3h0.8v1h-3v-1h0.8l-1.8-2.2-1.8 2.2h0.8v1h-3v-1h0.8l2.5-3-2.5-3h-0.8v-1h3v1h-0.8l1.8 2.2 1.8-2.2h-0.8v-1z"></path>
</svg>

<svg width="16" height="16" viewBox="0 0 16 16" fill="rgb(34, 34, 34)" xmlns="http://www.w3.org/2000/svg"><title>file-excel-o</title><path d="M11 0H2C1.5 0 1 0.5 1 1V15C1 15.5 1.5 16 2 16H14C14.5 16 15 15.5 15 15V4L11 0ZM11 1.4L13.6 4H11V1.4ZM14 15H2V1H10V5H14V15ZM9 6H12V7H11.2L8.7 10L11.2 13H12V14H9V13H9.8L8 10.8L6.2 13H7V14H4V13H4.8L7.3 10L4.8 7H4V6H7V7H6.2L8 9.2L9.8 7H9V6Z" fill="rgb(34, 34, 34)" fill-opacity="1.00"/></svg>
